Hatter-kde/actions/22/view-sort-ascending-name.svg

<svg xmlns="http://www.w3.org/2000/svg" viewBox="0 0 22 22">
  <defs id="defs3051">
    <style type="text/css" id="current-color-scheme">
      .ColorScheme-Text {
        color:#363636;
      }
      </style>
  </defs>
 <path 
    style="fill:currentColor;fill-opacity:1;stroke:none" 
    d="M 7.0957031 3 C 6.3124631 3.0182 5.7105975 3.1551087 5.2734375 3.3554688 L 5.5195312 4.2558594 C 5.7290012 4.1829594 6.5218511 3.9296875 6.9863281 3.9296875 L 7.0488281 3.9296875 C 7.6954581 3.9569875 7.7421875 4.1924969 7.7421875 4.7480469 L 7.7421875 4.9667969 L 7.4042969 5.0214844 C 5.8378069 5.2491744 5 5.4403881 5 6.6425781 C 5 7.4804681 5.6107106 8 6.4941406 8 C 7.1043406 8 7.5042305 7.7445175 7.9140625 7.3984375 L 8.0410156 7.9082031 L 9.0078125 7.9082031 L 9.0078125 4.5390625 C 9.0078125 3.5099225 8.296026 3 7.203125 3 L 7.0957031 3 z M 7.7421875 5.6777344 L 7.7421875 6.796875 C 7.4052175 7.024565 7.1500506 7.1894531 6.7128906 7.1894531 C 6.3212706 7.1894531 6.1289062 6.9437363 6.1289062 6.5976562 C 6.1289062 5.9419163 6.7030169 5.8326019 7.4042969 5.7324219 L 7.7421875 5.6777344 z M 13.5 8.7929688 L 13.292969 9 L 10 12.292969 L 10.707031 13 L 13 10.707031 L 13 19 L 14 19 L 14 10.707031 L 16.292969 13 L 17 12.292969 L 13.707031 9 L 13.5 8.7929688 z M 5.1113281 9.1992188 L 5.1113281 10.013672 L 7.1835938 10.013672 L 5 13.269531 L 5 14 L 8.828125 14 L 8.828125 13.148438 L 6.5820312 13.148438 L 8.7558594 9.8574219 L 8.7558594 9.1992188 L 5.1113281 9.1992188 z "
	class="ColorScheme-Text"
    />  
</svg>

<?xml version="1.0" encoding="UTF-8"?>
<svg viewBox="0 0 22 22" xmlns="http://www.w3.org/2000/svg">
 <defs id="defs3051">
  <style id="current-color-scheme" type="text/css">.ColorScheme-Text {
        color:#363636;
      }</style>
 </defs>
 <path class="ColorScheme-Text" d="m7.0957 3c-0.78324 0.0182-1.3851 0.15511-1.8223 0.35547l0.24609 0.90039c0.20947-0.0729 1.0023-0.32617 1.4668-0.32617h0.0625c0.64663 0.0273 0.69336 0.26281 0.69336 0.81836v0.21875l-0.33789 0.054688c-1.5665 0.22769-2.4043 0.4189-2.4043 1.6211 0 0.83789 0.61071 1.3574 1.4941 1.3574 0.6102 0 1.0101-0.25548 1.4199-0.60156l0.12695 0.50977h0.9668v-3.3691c0-1.0291-0.71179-1.5391-1.8047-1.5391h-0.10742zm0.64648 2.6777v1.1191c-0.33697 0.22769-0.59214 0.39258-1.0293 0.39258-0.39162 0-0.58398-0.24572-0.58398-0.5918 0-0.65574 0.57411-0.76505 1.2754-0.86523l0.33789-0.054688zm5.7578 3.1152-3.5 3.5 0.70703 0.70703 2.293-2.293v8.293h1v-8.293l2.293 2.293 0.70703-0.70703-3.5-3.5zm-8.3887 0.40625v0.81445h2.0723l-2.1836 3.2559v0.73047h3.8281v-0.85156h-2.2461l2.1738-3.291v-0.6582h-3.6445z" fill="currentColor"/>
</svg>
